X:945
T:Körepolska
T:(SvL Skåne 945)
T:efter Ola Grönvall
R:Körepolska
O:Värby, Bara, Skåne
S:Svenska Låtar Skåne
B:Svenska Låtar Skåne
Z:Åke Persson 2012-03-19
M:3/4
L:1/8
K:A
|: cc (dB) ee | cc(df) e2 | cc(df) ee |1 (cA) (BG) AE :|2 cA BG A2 |]
|: ea cd e2 | ea (cd) e2 | cc(df) ee |1 cABG AA :|2 c(A/c/) BG/B/ A2 |]

